X:1
T:Gaudeamus igitur 
T:Anon.
%%score [ ( 1 2 ) ( 3 4 ) ]
L:1/8
M:3/4
K:Bb
V:1 treble nm="Soprano"
V:2 treble 
V:3 bass nm="Bass"
V:4 bass 
V:1
|: B3/2 F/ F2 B2 | G3/2 G/ G4 | A3/2 B/ c2 A2 | (Bd) B2 z2 :| A3/2 B/ c2 c2 | d B (c2 c2) | %6
 A3/2 B/ (c2 c2) | d B (c2 c2) | B3/2 A/ G2 (ec) | (B2 c2) d2 | B3/2 A/ G2 (ec) | (B2 A2) B2 |] %12
V:2
|: D3/2 B,/ B,2 D2 | E3/2 E/ E4 | E3/2 E/ E2 E2 | (DF) F2 z2 :| F3/2 F/ F2 F2 | F F (F2 A2) | %6
w: Gau- de- a- mus|i- gi- tur,|Iu- ve- nes dum|su- * mus,|Post iu- cun- dum|iu- ven- tu- tem,|
w: Vi- vat a- ca-|de- mi- a,|vi- vant pro- fes-|so- * res,|Vi- vat mem- brum|quod- li- bet, _|
w: Vi- ta nos- tra|bre- vis est,|bre- vi fi- ni-|e- * tur;|Ve- nit mors ve-|lo- ci- ter, _|
 F3/2 F/ (F2 F2) | F F (F2 A2) | F3/2 F/ E2 (GE) | (F2 ^F2) G2 | F3/2 F/ E2 (GE) | (F2 E2) D2 |] %12
w: Post mo- les- tam|se- nec- tu- tem,|Nos ha- be- bit _|hu- * mus,|nos ha- be- bit _|hu- * mus.|
w: Vi- vat mem- bra|quæ- li- bet, _|Sem- per sint in _|flo- * re,|sem- per sint in _|flo- * re.|
w: Ra- pid nos a-|tro- ci- ter, _|Ne- mi- ni par- *|ce- * tur,|ne- mi- ni par- *|ce- * tur.|
V:3
|: F,3/2 F,/ F,2 B,2 | B,3/2 B,/ C4 | C3/2 C/ F2 C2 | B,2 D2 z2 :| C3/2 C/ C2 A,2 | B, D (C2 C2) | %6
 C3/2 C/ (C2 A,2) | B, D (C2 C2) | B,3/2 B,/ B,2 C2 | (D2 C2) B,2 | B,3/2 B,/ B,2 C2 | %11
 (D2 C2) B,2 |] %12
V:4
|: B,,3/2 D,/ D,2 B,,2 | E,3/2 D,/ C,4 | F,3/2 G,/ A,2 F,2 | B,2 B,,2 z2 :| F,3/2 G,/ A,2 F,2 | %5
 B, B, (A,2 F,2) | F,3/2 G,/ (A,2 F,2) | B, B, (A,2 F,2) | D,3/2 D,/ E,2 (C,E,) | (B,2 A,2) G,2 | %10
 D,3/2 D,/ E,2 (C,E,) | F,4 B,,2 |] %12

